X: 50
T: Stomp Dance Song (f)
C: Anon.
%%abc-version 2.0
%%abcx-abcm2ps-target-version 5.9.1 (29 Sep 2008)
%%abc-creator hum2abc beta
%%abcx-conversion-date 2020/08/10 20:56:09
%%abc-copyright Electronic Copyright 2000 David Huron
%%abc-edited-by David Huron
%%abcx-initial-encoding-date August 29, 2000
%%humdrum-veritas 4090072007
%%humdrum-veritas-data 2994439233
%%linebreak <none>
%%barnumbers 0
L: 1/8
M: 3/4
Q: 1/4=138
K: Bb clef=bass
B, B, F, F,B,2[M:2/4] | 
B,2B, B, | 
B,2z2[M:3/4] | 
B, B, F, F,B,2[M:2/4] | 
C2C B, | 
B,2z2[M:3/4] | 
B, B, F, F, B,3/ B,/[M:2/4] | 
D7/D/ | 
D4[M:3/4] | 
C CB,2C z/ D/[M:2/4] | 
C3B, | 
B,2z2[M:3/4] | 
B, B, F, F,B,2[M:2/4] | 
C2C B, | 
B,2z2[M:3/4] | 
B, B, F, F,B,2[M:2/4] | 
B, B, B, B, | 
B,2z2[M:3/4] | 
B, B, F, F,B,2[M:2/4] | 
C C C B, | 
B,2z2[M:3/4] | 
B, B, F, F, B,3/ B/[M:2/4] | 
D4 | 
D3C[M:3/4] | 
C B,-B,2C z/ D/ | 
C4 | 
B,3z[M:3/4] | 
B, B, F, F,B,2[M:2/4] | 
D2B C | 
B,3z[M:3/4] | 
B, B, F, F,B,2[M:2/4] | 
C2C B, | 
B,2z2[M:3/4] | 
B, B, F, F, B,3/ B,/[M:2/4] | 
B,2z2 | 
B,2z2 |]  


